icons/hidden.svg

<?xml version="1.0" encoding="UTF-8" standalone="no"?>
<svg
   xmlns:dc="http://purl.org/dc/elements/1.1/"
   xmlns:cc="http://creativecommons.org/ns#"
   xmlns:rdf="http://www.w3.org/1999/02/22-rdf-syntax-ns#"
   xmlns:svg="http://www.w3.org/2000/svg"
   xmlns="http://www.w3.org/2000/svg"
   id="svg4"
   viewBox="0 0 50 50"
   version="1.1"
   width="50"
   height="50">
  <metadata
     id="metadata10">
    <rdf:RDF>
      <cc:Work
         rdf:about="">
        <dc:format>image/svg+xml</dc:format>
        <dc:type
           rdf:resource="http://purl.org/dc/dcmitype/StillImage" />
        <dc:title></dc:title>
      </cc:Work>
    </rdf:RDF>
  </metadata>
  <defs
     id="defs8" />
  <path
     id="path2791"
     d="M 10.089844,5.7011719 C 9.6870117,5.6645508 9.21875,5.78125 8.75,6.25 l -2.5,2.5 c -1.25,1.25 0,2.5 0,2.5 l 32.5,32.5 c 0,0 1.25,1.25 2.5,0 l 2.5,-2.5 c 1.25,-1.25 0,-2.5 0,-2.5 L 38.933594,33.933594 C 44.155728,30.4118 47.5,26.25 47.5,26.25 c 0,0 1.25,-1.25 0,-2.5 0,0 -10,-12.5 -22.5,-12.5 -2.582543,0 -5.048586,0.551783 -7.351562,1.398438 L 11.25,6.25 c 0,0 -0.48877,-0.487793 -1.160156,-0.5488281 z M 25,15 a 10,10 0 0 1 10,10 10,10 0 0 1 -0.892578,4.107422 L 31.140625,26.140625 A 6.25,6.25 0 0 0 31.25,25 6.25,6.25 0 0 0 25,18.75 6.25,6.25 0 0 0 23.859375,18.859375 L 20.894531,15.894531 A 10,10 0 0 1 25,15 Z M 8.1972656,18.197266 C 4.6589123,21.072777 2.5,23.75 2.5,23.75 c -1.25,1.25 0,2.5 0,2.5 0,0 10,12.5 22.5,12.5 1.171215,0 2.320257,-0.109679 3.441406,-0.308594 L 25,35 A 10,10 0 0 1 15,25 Z" />
</svg>

<?xml version="1.0" encoding="UTF-8"?>
<svg width="50" height="50" version="1.1" viewBox="0 0 50 50" xmlns="http://www.w3.org/2000/svg">
<path d="m10.09 5.7012c-0.40283-0.036621-0.87109 0.080078-1.3398 0.54883l-2.5 2.5c-1.25 1.25 0 2.5 0 2.5l32.5 32.5s1.25 1.25 2.5 0l2.5-2.5c1.25-1.25 0-2.5 0-2.5l-4.8164-4.8164c5.2221-3.5218 8.5664-7.6836 8.5664-7.6836s1.25-1.25 0-2.5c0 0-10-12.5-22.5-12.5-2.5825 0-5.0486 0.55178-7.3516 1.3984l-6.3984-6.3984s-0.48877-0.48779-1.1602-0.54883zm14.91 9.2988a10 10 0 0 1 10 10 10 10 0 0 1-0.89258 4.1074l-2.9668-2.9668a6.25 6.25 0 0 0 0.10938-1.1406 6.25 6.25 0 0 0-6.25-6.25 6.25 6.25 0 0 0-1.1406 0.10938l-2.9648-2.9648a10 10 0 0 1 4.1055-0.89453zm-16.803 3.1973c-3.5384 2.8755-5.6973 5.5527-5.6973 5.5527-1.25 1.25 0 2.5 0 2.5s10 12.5 22.5 12.5c1.1712 0 2.3203-0.10968 3.4414-0.30859l-3.4414-3.4414a10 10 0 0 1-10-10z"/>
</svg>
